!!!COM: Il Verso, Antonio
!!!CDT:
!!!OTL: Soletto Amor tendea
!!!PTL: Il terzo libro de madrigali a cinque voci
!!!PPP: Palermo
!!!PPR: Francesco Carrara
!!!PDT: 1595
!!!PUB-format:
!!!RISM: I 6
!!!rime: 259
!!!AGN: Madrigal
!!!SCT: Trm0259a
!!!SCA: Trm0259a
!!!original-voices: 5
!!!extant-voices: 2
!!!complete: N
!!!final: A
**kern	**text	**kern	**text
*part2	*part2	*part1	*part1
*staff2	*staff2	*staff1	*staff1
*I"Tenore	*	*I"Alto	*
*I'T	*	*I'A	*
*oclefC4	*	*oclefC3	*
*clefGv2	*	*clefGv2	*
*k[]	*	*k[]	*
*C:	*	*C:	*
*omet(C)	*	*omet(C)	*
*M4/2	*	*M4/2	*
=1	=1	=1	=1
!	!	!LO:TX:a:t=[Illegible] Tasso	!
0r	.	0r	.
=2	=2	=2	=2
0r	.	2r	.
.	.	2e	Qual
.	.	4c#X	pe-
.	.	4e	-sca-
.	.	4d	-tor,
.	.	4cnXi	le
=3	=3	=3	=3
4r	.	2B	re-
4E	Qual	.	.
4.A	pe-	4A	-ti,
.	.	4e	Qual
8A	-sca-	.	.
4G	-tor,	4.g	pe-
4c	le	.	.
.	.	8f	-sca-
2B	re-	4d	-tor,
.	.	4e	le
=4	=4	=4	=4
2A	-ti,	8cL	re-
.	.	8d	.
.	.	8e	.
.	.	8fJ	.
2r	.	4g	.
.	.	4f	-ti,
2r	.	4r	.
.	.	4a	Qual
4r	.	4a	pe-
4E	Qual	4g	-sca-
=5	=5	=5	=5
4F	pe-	4c	-tor,
4D	-sca-	4d	le-
2A	-tor,	2e	-te-
1r	.	4d	.
.	.	4c	.
.	.	2e	.
=6	=6	=6	=6
2r	.	1e	-ti
2B	Fra	.	.
2.c	ca-	1e	Fra
4A	-ri	.	.
=7	=7	=7	=7
2B	sco-	2.g	ca-
2c	-gli	.	.
.	.	4g	-ri
2G	per	2g	sco-
2A	di-	2e	-gli
=8	=8	=8	=8
2e	-por-	0r	.
2B	-to un	.	.
2.c	gior-	.	.
4d	.	.	.
=9	=9	=9	=9
1e	.	1r	.
2A	-no,	2r	.
2A	Et	2c#X	Et
=10	=10	=10	=10
2.A	un	2.d	un
4A	bel	4d	bel
4E	fior	2.e	fior
4E	ve-	.	.
2e	-de-	.	.
.	.	4g	ve-
=11	=11	=11	=11
2d	-a,	2g	-de-
4r	.	2e	-a,
4G	Et	.	.
4.A	un	4r	.
.	.	4e	ve-
8A	bel	.	.
4B	fior	2g	-de-
4e	ve-	.	.
=12	=12	=12	=12
2d	-de-	1g	-a,
2c	-a,	.	.
!!LO:TX:a:cj:t=[whole] &rarr; [whole-dot]
=13	=13	=13	=13
*M6/2	*	*M6/2	*
*omet(O3)	*	*omet(O3)	*
2A	Ch'a	2a	Ch'a
2A	tut-	2a	tut-
2B	-ti i	2g	-ti i
1c	fior	1e	fior,
2G	più	2d	Ch'a
=14	=14	=14	=14
1G	lie-	1c	tut-
2G	-ti,	2g	-ti i
1.r	.	1e	fior
.	.	2e	più
=15	=15	=15	=15
2A	Ch'a	2.e	lie-
2A	tut-	.	.
.	.	4f	.
2G	-ti i	4g	.
.	.	4d	.
1F	fior	2.f	.
.	.	4e	.
2B-X	più	2d	.
=16	=16	=16	=16
1.A	lie-	1.e	.
!!LO:TX:a:cj:t=[whole-dot] &rarr; [whole]
=17	=17	=17	=17
*M4/2	*	*M4/2	*
*omet(C)	*	*omet(C)	*
2D	-ti	2d	-ti
4r	.	2d	Fa-
4A	Fa-	.	.
4.A	-cea	4c#X	-cea
.	.	4d	ne
8A	ne	.	.
4A	l'on-	4e	l'on-
[4e	-de a-	4e	-de a-
=18	=18	=18	=18
4e]	.	2f	-ma-
2d	-ma-	.	.
.	.	4e	-re un
4c	-re un	2e	dol-
2B	dol-	.	.
.	.	4d#X	-ce
2E	-ce	[2e	scor-
=19	=19	=19	=19
2c	scor-	2e]	.
2B	-no;	2d#X	-no;
1r	.	2e	E
.	.	4dnXi	pien
.	.	4c	di
=20	=20	=20	=20
2r	.	4e	me-
.	.	4e	-ra-
4r	.	2e	-vi-
4e	E	.	.
4.A	pien	2e	-glia,
8B	di	.	.
8c	me-	4r	.
8A	-ra-	.	.
4e	-vi-	4g#X	<E
=21	=21	=21	=21
2A	-glia,	4a	pien
.	.	4e	di
4r	.	2.f	me-
4A	<E	.	.
4.d	pien	.	.
.	.	4e	-ra-
8c#X	di	.	.
8d	me-	2d	-vi-
8A	-ra-	.	.
4f	-vi-	.	.
=22	=22	=22	=22
4e	-glia>	2A	-glia>
4A	Di-	.	.
4.A	-cea:	4r	.
.	.	4c	Di-
8G#X	"fe-	.	.
8A	-li-	8c	-cea:
8B	-ce	8d	"fe-
2cnXi	pre-	8e	-li-
.	.	8c	-ce
.	.	4.d	pre-
4B	-da e	.	.
.	.	8d	-da e
=23	=23	=23	=23
4c	chi	8e	chi
.	.	8c	la
4GnXi	la	4.d	pi-
2A	pi-	.	.
.	.	16c#XL	.
.	.	16BJ	.
.	.	4c#X	.
2D	-glia,"	4d	-glia,"
.	.	4d	<Di-
4r	.	4.d	-cea:
4A	Di-	.	.
.	.	8e	"fe-
=24	=24	=24	=24
4.A	-cea:	4d	-li-
.	.	4cnXi	-ce
8A	"fe-	.	.
4G	-li-	4c	pre-
4c	-ce	4G	-da e
4.c	pre-	4c	chi
.	.	4c	la
8d	.	.	.
4e	.	2g	pi-
4d	-da e	.	.
=25	=25	=25	=25
8c	chi	1e	-glia,">
8d	la	.	.
4e	pi-	.	.
2A	-glia,"	.	.
2r	.	2r	.
2G	Di-	4r	.
.	.	4g	Di-
=26	=26	=26	=26
8A	-cea:	4.e	-cea:
8B	"fe-	.	.
8c	-li-	.	.
8d	-ce	8f	"fe-
2e	pre-	4g	-li-
.	.	4e	-ce
2A	-da,"	2.e	pre-
4r	.	.	.
8r	.	4e	-da e
8c	Di-	.	.
=27	=27	=27	=27
8d	-cea:	4.g	chi
8e	"fe-	.	.
8d	-li-	.	.
8d	-ce	8g	la
8f	pre-	4a	pi-
8c	-da e	.	.
8c	chi	4e	-glia,"
8c	la	.	.
4d	pi-	4r	.
4c	-glia,"	4g	Di-
4r	.	4g	-cea:
4G	Di-	4g	"fe-
=28	=28	=28	=28
8c	-cea:	4e	-li-
8A	"fe-	.	.
8G	-li-	4g	-ce
8G	-ce	.	.
8A	pre-	4.f	pre-
8E	-da e	.	.
8F	chi	.	.
8G	la	8e	-da e
4A	pi-	4c	chi
8D	-glia,"	4f	la
8d	Di-	.	.
8B	-cea:	2e	pi-
8A	"fe-	.	.
8B	-li-	.	.
8E	-ce	.	.
=29	=29	=29	=29
2.A	pre-	4e	-glia,"
.	.	4A	Di-
.	.	8c	-cea:
.	.	8d	"fe-
4A	-da e	8e	-li-
.	.	8f	-ce
4E	chi	8g	pre-
.	.	8f	-da e
4c	la	8e	chi
.	.	8d	la
2B	pi-	2e	pi-
=30	=30	=30	=30
0Al	-glia."	0el	-glia."
==	==	==	==
*-	*-	*-	*-
!!!system-decoration: [*]
!!!RDF**kern: i = editorial accidental
!!!RDF**kern: l = terminal long
!!!ENC: Emiliano Ricciardi
!!!END: 2019/01/01
!!!EED: Ricciardi, Emiliano
!!!EEV: 2019/01/14
!!!YEC: Copyright 2018 Emiliano Ricciardi, All Rights Reserved
!!!ONB: Translated from MusicXML on 2019/01/14 and edited by Craig Stuart Sapp
!!@@BEGIN:	VERSEDATA
!!@SOLERTI:	259
!!@CATALOGNUM:	Trm0259
!!@LAST_MODIFIED: 2020/07/12
!!@TITLE:		Soletto Amor tendea
!!@GENRE:		madrigale
!!@MANUSRC:	I<sub>4</sub>
!!@PRINTSRC:	28, 141, 166, 169
!!@@BEGIN:	VERSES
!!@ABOUTIT:
!!@ABOUTEN:
!!@EDITOR:	Solerti, Angelo
!!@EDITION_TITLE: Le Rime di Torquato Tasso
!!@EDITION_LOC:	Bologna
!!@EDITION_PUB:	Romagnoli-Dall’Acqua
!!@EDITION_DATE:  1898-1902
!!@EDITION_VOL:	2
!!@EDITION_PAGE:  343
!!@TRANSLATOR:	Emiliano Ricciardi and Amyrose McCue Gill
!!@VERSE:
!!	Soletto Amor tendea,
!!	Qual pescator, le reti
!!	Fra cari scogli per diporto un giorno,
!!	Ed un bel fior vedea,
!!	Ch'a tutti i fior più lieti
!!	Facea ne l'onde amare un dolce scorno;
!!	E pien di maraviglia
!!	Dicea &mdash; felice preda! o chi la piglia? &mdash;
!!@TVERSE:
!!	All alone, Love cast,
!!	Like a fisherman, his nets
!!	Among dear rocks for fun one day,
!!	And saw a beautiful flower,
!!	That among all the happier flowers
!!	Provoked sweet disdain in bitter waves;
!!	And full of amazement
!!	[Love] said &mdash; happy prey! or who picks it? &mdash;
!!
!!@@END:		VERSES
!!@OTHER_CRIT_ED:   None
!!@ATTRIBUTION_ABOUT:	Secure
!!		<br>
!!		This poem is attributed to Tasso in two independent sources, a manuscript and a print (see Literary Sources).
!!@DATING:	In or before 1587
!!		<br>
!!		The earliest datable appearance of this poem is in the literary print <i>Gioie di rime</i>, published by Vasalini in 1587 (see Literary Sources).
!!@DEDICATEE:
!!@COMMENTARY:
!!@@END:		VERSEDATA
!!@@BEGIN:	SETTING
!!@CATALOGNUM:	Trm0259a
!!@RIMETITLE:	Soletto Amor tendea
!!@SOLERTI:	259
!!@COMPOSER:	Il Verso, Antonio
!!@PRINCEPSTITLE:	Il terzo libro de madrigali a cinque voci
!!@PRINCEPSLOC:	Palermo
!!@NORMLOC:	Palermo
!!@NORMPUB:	Francesco Carrara
!!@NORMPUBSHORT:	Carrara
!!@PRINCEPSPUB:	Francesco Carrara
!!@PRINCEPSYEAR:	1595
!!@PRINCEPSRISM:	I 6
!!@REPRINTS:	
!!@OVOICES:	5
!!@EXTANTVOICES:	2
!!@PARTBOOKS:	
!!@EXTPARTBOOKS:	
!!@OCLEFS:	C3,C4
!!@OMENSURATION:	C; O3; C
!!@OKEYSIG:	-
!!@FINAL:	A
!!@TIMPEDITOR:	Ricciardi, Emiliano
!!@NOTE:		
!!@@END:		SETTING
